resources/haticons/SVG/credit-card1.svg

<!-- Generated by IcoMoon.io -->
<svg version="1.1" xmlns="http://www.w3.org/2000/svg" width="24" height="24" viewBox="0 0 24 24">
<title>credit-card1</title>
<path d="M21.882 3.529h-19.765c-1.129 0-2.118 0.988-2.118 2.118v12.706c0 1.129 0.988 2.118 2.118 2.118h19.765c1.129 0 2.118-0.988 2.118-2.118v-12.706c0-1.129-0.988-2.118-2.118-2.118zM2.118 4.941h19.765c0.423 0 0.706 0.282 0.706 0.706v1.129h-21.177v-1.129c0-0.423 0.282-0.706 0.706-0.706zM22.588 8.188v1.129h-21.177v-1.129zM21.882 19.059h-19.765c-0.423 0-0.706-0.282-0.706-0.706v-7.624h21.177v7.624c0 0.423-0.282 0.706-0.706 0.706zM3.67 13.976h3.67c0.423 0 0.706-0.282 0.706-0.706s-0.282-0.706-0.706-0.706h-3.67c-0.423 0-0.706 0.282-0.706 0.706s0.282 0.706 0.706 0.706zM12.282 15.529h-8.612c-0.423 0-0.706 0.282-0.706 0.706s0.282 0.706 0.706 0.706h8.612c0.282 0 0.706-0.282 0.706-0.706s-0.282-0.706-0.706-0.706z"></path>
</svg>

<svg xmlns="http://www.w3.org/2000/svg" width="24" height="24"><path d="M21.882 3.529H2.117c-1.129 0-2.118.988-2.118 2.118v12.706c0 1.129.988 2.118 2.118 2.118h19.765c1.129 0 2.118-.988 2.118-2.118V5.647c0-1.129-.988-2.118-2.118-2.118zM2.118 4.941h19.765c.423 0 .706.282.706.706v1.129H1.412V5.647c0-.423.282-.706.706-.706zm20.47 3.247v1.129H1.411V8.188zm-.706 10.871H2.117c-.423 0-.706-.282-.706-.706v-7.624h21.177v7.624c0 .423-.282.706-.706.706zM3.67 13.976h3.67c.423 0 .706-.282.706-.706s-.282-.706-.706-.706H3.67c-.423 0-.706.282-.706.706s.282.706.706.706zm8.612 1.553H3.67c-.423 0-.706.282-.706.706s.282.706.706.706h8.612c.282 0 .706-.282.706-.706s-.282-.706-.706-.706z"/></svg>
